X:1
T: The Laddie wi' the Bonnet
C:Alexander Walker
R:Reel
Q: 232
K:Bb
M:4/4
L:1/8
|:F|B2 GB FD DF|EC DB, CG, G,F|B2 GB FD DF|Bc dB G3F|
B2 GB FD DF|EC DB, CG, G,F|B2 GB FD DF|Bc dB G3f|
gf ga bf dg|fd fa fd Bd|cB cd ed cB|FB dc B3f|
ba bg fd df|ec dB Ac AF|Bd fd eg bg|fd cd B3:|
